tools/download-figma-icons/icons/solid/paperless-alternative.svg

<svg width="24" height="24" viewBox="0 0 24 24" fill="none" xmlns="http://www.w3.org/2000/svg">
<path fill-rule="evenodd" clip-rule="evenodd" d="M21.0968 17.017L15.952 11.9246C16.5595 11.4896 17.2945 11.2271 18.0969 11.2271C20.1219 11.2271 21.7718 12.8771 21.7718 14.902C21.7718 15.6895 21.5168 16.417 21.0968 17.017ZM18.097 18.5769C16.072 18.5769 14.4221 16.927 14.4221 14.902C14.4221 14.2203 14.6171 13.5896 14.9471 13.0421L19.9944 18.0369C19.4394 18.3752 18.7944 18.5769 18.097 18.5769ZM12.4271 6.24804V1.50069L17.362 6.46478H12.6671C12.5396 6.46478 12.4271 6.36729 12.4271 6.24804ZM18.8469 9.78718V6.14979C18.8469 5.9548 18.7719 5.75981 18.6294 5.62556L13.2746 0.218226C13.1321 0.0749801 12.9446 0.0007324 12.7421 0.0007324H1.49995C1.08747 0.0007324 0.749977 0.329972 0.749977 0.75071V23.25C0.749977 23.6618 1.08747 24 1.49995 24H18.0969C18.5094 24 18.8469 23.6618 18.8469 23.25V20.0169C19.9194 19.8594 20.8869 19.3794 21.6368 18.6669C21.6443 18.6594 21.6593 18.6519 21.6743 18.6444C21.6818 18.6369 21.6818 18.6294 21.6893 18.6227C22.6643 17.6769 23.2718 16.3645 23.2718 14.902C23.2718 12.2996 21.3443 10.1554 18.8469 9.78718Z" fill="black"/>
</svg>

<svg width="24" height="24" viewBox="0 0 24 24" fill="none" xmlns="http://www.w3.org/2000/svg"><path fill-rule="evenodd" clip-rule="evenodd" d="m21.097 17.017-5.145-5.092a3.666 3.666 0 0 1 2.145-.698 3.68 3.68 0 0 1 3.675 3.675c0 .788-.255 1.515-.675 2.115Zm-3 1.56a3.68 3.68 0 0 1-3.675-3.675c0-.682.195-1.312.525-1.86l5.047 4.995a3.63 3.63 0 0 1-1.897.54Zm-5.67-12.329V1.501l4.935 4.964h-4.695c-.127 0-.24-.098-.24-.217Zm6.42 3.54V6.15a.722.722 0 0 0-.218-.524L13.275.218a.74.74 0 0 0-.533-.217H1.5A.746.746 0 0 0 .75.75v22.5c0 .412.337.75.75.75h16.597c.412 0 .75-.338.75-.75v-3.233a5.122 5.122 0 0 0 2.79-1.35c.007-.008.022-.015.037-.023.008-.007.008-.015.015-.021a5.161 5.161 0 0 0 1.583-3.721c0-2.602-1.928-4.747-4.425-5.115Z" fill="currentColor"/></svg>
